X: 10343
T: VON WEBBER'S FAVORITE WALTZ
C:
%R: waltz
B: Elias Howe "The Musician's Companion" Part 1 1842 p.34 #3
S: http://imslp.org/wiki/The_Musician's_Companion_(Howe,_Elias)
Z: 2015 John Chambers <jc:trillian.mit.edu>
N: The rhythms at the ends of the 3rd strain are wrong; not fixed.
N: It's not clear when to play the 3rd strain.
M: 3/4
L: 1/8
K: G
% - - - - - - - - - - - - - - - - - - - - - - - - -
DGB |\
edBDGB | edBDGB | dcADFA | cBGDGB |\
edBDGB | edBDGB | dcADFA | G3 :: Adf |\
bafAdf | bafAdf | ageAce |
gfdAdf |\
bafAdf | bafAdf | ageAce | "^D.C."d3 :|\
G3 DGB |dcA2z2 | D3DFA | cBG2z2 |\
D3DFA | dcAdcA | dcAdcA | G3 z2 |]
% - - - - - - - - - - - - - - - - - - - - - - - - -


